storage/app/icons/phosphoricons/duotone/article-ny-times-duotone.svg

<svg xmlns="http://www.w3.org/2000/svg" fill="currentColor" viewBox="0 0 256 256"><path d="M232 104v96H80v-32h48v-64Z" opacity=".2"/><path d="M128 96h104a8 8 0 0 1 0 16H128a8 8 0 0 1 0-16m104 32H128a8 8 0 0 0 0 16h104a8 8 0 0 0 0-16m0 32H80a8 8 0 0 0 0 16h152a8 8 0 0 0 0-16m0 32H80a8 8 0 0 0 0 16h152a8 8 0 0 0 0-16M96 144a8 8 0 0 0 0-16h-8V64h32v8a8 8 0 0 0 16 0V56a8 8 0 0 0-8-8H32a8 8 0 0 0-8 8v16a8 8 0 0 0 16 0v-8h32v64h-8a8 8 0 0 0 0 16Z"/></svg>

<svg xmlns="http://www.w3.org/2000/svg" viewBox="0 0 256 256" fill="currentColor"><path d="M232,104v96H80V168h48V104Z" opacity="0.2"/><path d="M128,96H232a8,8,0,0,1,0,16H128a8,8,0,0,1,0-16Zm104,32H128a8,8,0,0,0,0,16H232a8,8,0,0,0,0-16Zm0,32H80a8,8,0,0,0,0,16H232a8,8,0,0,0,0-16Zm0,32H80a8,8,0,0,0,0,16H232a8,8,0,0,0,0-16ZM96,144a8,8,0,0,0,0-16H88V64h32v8a8,8,0,0,0,16,0V56a8,8,0,0,0-8-8H32a8,8,0,0,0-8,8V72a8,8,0,0,0,16,0V64H72v64H64a8,8,0,0,0,0,16Z"/></svg>
